X:376
T:Reel 376
M:4/4
K:Dmaj
L:1/8
Addc AFEF|GEBE dEcE|Addc dcec|dBAF GFEF|Addc defd|cAAF GEEF|DEFG ABcd|cAGE FDD2|abaf dedf|geed cdAG|AGAB defa|gecd eddf|afdf afdf|gece dcBc|ABde fagb|afge fdd2|
